X:114
T:La Belle Catherine
Z:Jack Campin  *  May 2000  *  http://www.campin.me.uk/
M:2/4
L:1/16
Q:1/4=60
K:D
  [F4d4] {[Ge]}[Af][Ge][Fd][Ge] | [A2f2][F2d2] [F4d2]c2 | [G4B2]e2 [Ge][
Af][Ge
][Fd] | [E2c2][E2A2] [E2A2][E2c2] | [F4d4] {[Ge]}[Af][Ge][Fd][Ge] | [A2f
2][F2d
2] [F2d2][A2c2] | [G2B2][G2e2] [E2d]c[E2B]A | [F4d4] [F4d4] :|: [D2F2][F
2A2] [F2A2][D2G2] | [D2F2][F2A2] [F2A2][D2G2] | F2A2 [Ge][Af][Ge][Fd] |
[E2c2][E2A2] [E2A2][E2G2] | [DF][EG][FA][GB] [F2A2][E2F2] | [D2F2][F2A2]
 [F2A2][GB][Ac] | d3[ce] [B3g]fed | [d3d]ef^f [c4g4] :|

